glass/images/phone.svg

<svg width="18" height="21" viewBox="0 0 18 21" fill="none" xmlns="http://www.w3.org/2000/svg">
<path fill-rule="evenodd" clip-rule="evenodd" d="M15.352 0.976627C15.884 1.21878 16.6291 1.79484 17.0352 2.40023C17.4413 3.00562 17.5084 3.64028 17.4978 4.23044C17.4874 4.82053 17.3991 5.36619 16.7419 6.86031C16.085 8.35443 14.8589 10.797 13.1281 12.9939C11.3972 15.1909 9.16147 17.1421 7.74908 18.3027C6.33683 19.4632 5.74772 19.833 5.12273 20.0117C4.49759 20.1903 3.83635 20.1777 3.11545 19.8485C2.3947 19.5194 1.61435 18.8739 1.34963 18.2039C1.08491 17.5338 1.33588 16.8393 1.72605 16.1856C2.11622 15.5318 2.64581 14.9186 3.20776 14.496C3.76985 14.0733 4.36439 13.8411 4.84659 13.9348C5.32864 14.0283 5.69857 14.4478 5.93424 14.7312C6.16991 15.0145 6.27153 15.1616 6.37582 15.2596C6.48012 15.3576 6.58695 15.4063 6.78913 15.3242C6.9913 15.2421 7.28881 15.029 8.04588 14.4648C8.80296 13.9005 10.0197 12.9848 11.0228 11.8129C12.0259 10.6409 12.8155 9.21263 13.1434 8.38193C13.4711 7.55131 13.3374 7.31811 12.9873 7.1036C12.6372 6.88908 12.0709 6.69326 11.7564 6.40681C11.442 6.1203 11.3795 5.74346 11.3957 5.37099C11.412 4.99851 11.5069 4.63069 11.689 4.18411C11.8709 3.73752 12.1399 3.21231 12.4798 2.70642C12.8196 2.20046 13.2305 1.71382 13.526 1.41891C13.8215 1.12394 14.0018 1.02084 14.2514 0.923528C14.501 0.826073 14.8199 0.73433 15.352 0.976627Z" fill="#0047FF" stroke="#0047FF"/>
</svg>

<svg width="18" height="21" viewBox="0 0 18 21" fill="none" xmlns="http://www.w3.org/2000/svg"><path fill-rule="evenodd" clip-rule="evenodd" d="M15.352.977c.532.242 1.277.818 1.683 1.423.406.606.473 1.24.463 1.83-.01.59-.099 1.136-.756 2.63s-1.883 3.937-3.614 6.134c-1.73 2.197-3.967 4.148-5.379 5.309-1.412 1.16-2.001 1.53-2.626 1.709-.625.178-1.287.166-2.008-.163-.72-.33-1.5-.975-1.765-1.645-.265-.67-.014-1.365.376-2.018.39-.654.92-1.267 1.482-1.69.562-.423 1.156-.655 1.639-.561.482.093.852.513 1.087.796.236.284.338.43.442.529.104.098.21.146.413.064.202-.082.5-.295 1.257-.86.757-.564 1.974-1.48 2.977-2.651 1.003-1.172 1.793-2.6 2.12-3.431.328-.83.194-1.064-.156-1.278-.35-.215-.916-.41-1.23-.697-.315-.287-.377-.664-.361-1.036.016-.372.11-.74.293-1.187.182-.446.45-.972.79-1.478s.752-.992 1.047-1.287c.296-.295.476-.398.725-.495.25-.098.569-.19 1.101.053z" fill="#0047FF" stroke="#0047FF"/></svg>
